images/icons/google.svg

<svg width="40" height="40" viewBox="0 0 40 40" fill="none" xmlns="http://www.w3.org/2000/svg">
<path fill-rule="evenodd" clip-rule="evenodd" d="M19.9468 39.5106C30.9631 39.5106 39.8936 30.6659 39.8936 19.7553C39.8936 8.84476 30.9631 0 19.9468 0C8.93049 0 0 8.84476 0 19.7553C0 30.6659 8.93049 39.5106 19.9468 39.5106Z" fill="#F5F6FA" fill-opacity="0.01"/>
<mask id="mask0_2_14" style="mask-type:luminance" maskUnits="userSpaceOnUse" x="0" y="0" width="40" height="40">
<path fill-rule="evenodd" clip-rule="evenodd" d="M19.9468 39.5106C30.9631 39.5106 39.8936 30.6659 39.8936 19.7553C39.8936 8.84476 30.9631 0 19.9468 0C8.93049 0 0 8.84476 0 19.7553C0 30.6659 8.93049 39.5106 19.9468 39.5106Z" fill="white"/>
</mask>
<g mask="url(#mask0_2_14)">
</g>
<path d="M20.4469 18.5872V21.9234H25.1659C24.477 23.865 22.6221 25.2596 20.4469 25.2596C17.6879 25.2596 15.4426 23.0143 15.4426 20.2553C15.4426 17.4963 17.6879 15.251 20.4469 15.251C21.6429 15.251 22.7939 15.6797 23.688 16.4587L25.8798 13.9433C24.3785 12.6355 22.4502 11.9149 20.4469 11.9149C15.848 11.9149 12.1064 15.6564 12.1064 20.2553C12.1064 24.8542 15.848 28.5957 20.4469 28.5957C25.0458 28.5957 28.7873 24.8542 28.7873 20.2553V18.5872H20.4469Z" fill="black"/>
<mask id="mask1_2_14" style="mask-type:luminance" maskUnits="userSpaceOnUse" x="12" y="11" width="17" height="18">
<path d="M20.4469 18.5872V21.9234H25.1659C24.477 23.865 22.6221 25.2596 20.4469 25.2596C17.6879 25.2596 15.4426 23.0143 15.4426 20.2553C15.4426 17.4963 17.6879 15.251 20.4469 15.251C21.6429 15.251 22.7939 15.6797 23.688 16.4587L25.8798 13.9433C24.3785 12.6355 22.4502 11.9149 20.4469 11.9149C15.848 11.9149 12.1064 15.6564 12.1064 20.2553C12.1064 24.8542 15.848 28.5957 20.4469 28.5957C25.0458 28.5957 28.7873 24.8542 28.7873 20.2553V18.5872H20.4469Z" fill="white"/>
</mask>
<g mask="url(#mask1_2_14)">
<rect x="7.34058" y="7.14893" width="26.2128" height="26.2128" fill="white"/>
</g>
</svg>

<svg xmlns="http://www.w3.org/2000/svg" width="40" height="40" fill="none"><path fill="#F5F6FA" fill-opacity=".01" fill-rule="evenodd" d="M19.947 39.51c11.016 0 19.947-8.844 19.947-19.755C39.894 8.845 30.964 0 19.947 0S0 8.845 0 19.755c0 10.91 8.93 19.756 19.947 19.756Z" clip-rule="evenodd"/><mask id="a" width="40" height="40" x="0" y="0" maskUnits="userSpaceOnUse" style="mask-type:luminance"><path fill="#fff" fill-rule="evenodd" d="M19.947 39.51c11.016 0 19.947-8.844 19.947-19.755C39.894 8.845 30.964 0 19.947 0S0 8.845 0 19.755c0 10.91 8.93 19.756 19.947 19.756Z" clip-rule="evenodd"/></mask><path fill="#000" d="M20.447 18.587v3.336h4.719a5.014 5.014 0 0 1-4.72 3.337 5.01 5.01 0 0 1-5.003-5.005 5.01 5.01 0 0 1 5.004-5.004 4.93 4.93 0 0 1 3.241 1.208l2.192-2.516a8.266 8.266 0 0 0-5.433-2.028c-4.599 0-8.34 3.741-8.34 8.34 0 4.6 3.741 8.34 8.34 8.34s8.34-3.74 8.34-8.34v-1.668h-8.34Z"/><mask id="b" width="17" height="18" x="12" y="11" maskUnits="userSpaceOnUse" style="mask-type:luminance"><path fill="#fff" d="M20.447 18.587v3.336h4.719a5.014 5.014 0 0 1-4.72 3.337 5.01 5.01 0 0 1-5.003-5.005 5.01 5.01 0 0 1 5.004-5.004 4.93 4.93 0 0 1 3.241 1.208l2.192-2.516a8.266 8.266 0 0 0-5.433-2.028c-4.599 0-8.34 3.741-8.34 8.34 0 4.6 3.741 8.34 8.34 8.34s8.34-3.74 8.34-8.34v-1.668h-8.34Z"/></mask><g mask="url(#b)"><path fill="#fff" d="M7.341 7.149h26.213v26.213H7.341z"/></g></svg>
